X: 43099
T: Winding Roads Of Advance
R: reel
M: 4/4
K: Ddorian
dc|:AD (3DDD ADFD|ECB,C G,CEG|ADDB AGEG|cdec dBcB|
AD (3DDD ADFD|ECCC B,CEG|ADDB AGED|1 CEGE EDD2:|2 CDEC DEFG||
|:AFDE F3G|ADDc BG (3Bcd|AFDE FAGF|E2CE G,CEG|
ADDE FEDC|A,DDc BG (3ABc|d2 AG FGAB|cA (3Bcd cAGB:|

